packages/ui-icons/svg/Solid/clock.svg

<svg viewBox="0 0 1920 1920" version="1.1" xmlns="http://www.w3.org/2000/svg">
    <path d="M1377.88235,1344 L903.529412,988.235294 L903.529412,395.294118 L1016.47059,395.294118 L1016.47059,931.764706 L1445.64706,1253.53412 L1377.88235,1344 Z M960,0 C430.644706,0 0,430.644706 0,960 C0,1489.24235 430.644706,1920 960,1920 C1489.24235,1920 1920,1489.24235 1920,960 C1920,430.644706 1489.24235,0 960,0 L960,0 Z" stroke="none" stroke-width="1" fill-rule="evenodd"/>
</svg>

<svg viewBox="0 0 1920 1920" xmlns="http://www.w3.org/2000/svg">
    <path d="M1377.882 1344 903.53 988.235v-592.94h112.942v536.47l429.176 321.77-67.765 90.465ZM960 0C430.645 0 0 430.645 0 960c0 529.242 430.645 960 960 960 529.242 0 960-430.758 960-960 0-529.355-430.758-960-960-960Z" fill-rule="evenodd"/>
</svg>
